packages/bezier-icons/icons/auto-close.svg

<svg width="24" height="24" viewBox="0 0 24 24" fill="none" xmlns="http://www.w3.org/2000/svg">
<path fill-rule="evenodd" clip-rule="evenodd" d="M11.6741 8.78511C11.7969 9.07163 12.2031 9.07163 12.3259 8.78511L13.0637 7.06365L14.7851 6.32588C15.0716 6.20309 15.0716 5.79691 14.7851 5.67412L13.0637 4.93635L12.3259 3.21489C12.2031 2.92837 11.7969 2.92837 11.6741 3.21489L10.9363 4.93635L9.21489 5.67412C8.92837 5.79691 8.92837 6.20309 9.21489 6.32588L10.9363 7.06365L11.6741 8.78511ZM17.6741 20.7851C17.7969 21.0716 18.2031 21.0716 18.3259 20.7851L19.0637 19.0637L20.7851 18.3259C21.0716 18.2031 21.0716 17.7969 20.7851 17.6741L19.0637 16.9363L18.3259 15.2149C18.2031 14.9284 17.7969 14.9284 17.6741 15.2149L16.9363 16.9363L15.2149 17.6741C14.9284 17.7969 14.9284 18.2031 15.2149 18.3259L16.9363 19.0637L17.6741 20.7851ZM4.12097 11.192L9.07097 16.142L19.4324 5.7804C19.8229 5.38993 20.456 5.38993 20.8464 5.7804C21.2369 6.17086 21.2369 6.80393 20.8464 7.19439L9.77808 18.2629C9.38756 18.6534 8.75439 18.6534 8.36386 18.2629L2.70697 12.606C2.31651 12.2155 2.31651 11.5825 2.70697 11.192C3.09744 10.8015 3.73051 10.8015 4.12097 11.192Z" fill="#313234"/>
</svg>

<svg xmlns="http://www.w3.org/2000/svg" width="24" height="24" fill="none" viewBox="0 0 24 24"><path fill="#313234" fill-rule="evenodd" d="M11.674 8.785a.355.355 0 0 0 .652 0l.738-1.721 1.721-.738a.355.355 0 0 0 0-.652l-1.721-.738-.738-1.721a.355.355 0 0 0-.652 0l-.738 1.721-1.721.738a.355.355 0 0 0 0 .652l1.721.738zm6 12a.355.355 0 0 0 .652 0l.738-1.721 1.721-.738a.355.355 0 0 0 0-.652l-1.721-.738-.738-1.721a.355.355 0 0 0-.652 0l-.738 1.721-1.721.738a.355.355 0 0 0 0 .652l1.721.738zM4.121 11.192l4.95 4.95L19.432 5.78a1 1 0 1 1 1.414 1.414L9.778 18.263a1 1 0 0 1-1.414 0l-5.657-5.657a1 1 0 0 1 1.414-1.414" clip-rule="evenodd"/></svg>
